!!!COM:	Praetorius, Michael
!!!OTL:	In dulci jubilo
**kern	**kern	**kern	**kern
*ICvox	*ICvox	*ICvox	*ICvox
*I"Bassus	*I"Tenor	*I"Altus	*I"Diskantus
*clefF4	*clefGv2	*clefG2	*clefG2
*k[b-]	*k[b-]	*k[b-]	*k[b-]
*M3/1	*M3/1	*M3/1	*M3/1
*met(c|3)	*met(c|3)	*met(c|3)	*met(c|3)
1r	1r	1r	1r
1r	1r	1r	1r
1F	1A	1c	1f
0D	0A	0d	0f
1BB-	1B-	1d	1f
0FF	0c	0f	0a
1BB-	1F	1d	1b-
1AA	1A	0e	0cc
1C	0G	.	.
1GG	.	1Bn	1dd
0C	0G	0e	0cc
=	=	=	=
1F	1A	1c	1cc
2D	0A	1d	0f
2E	.	.	.
1F	.	1c	.
1BB-	1B-	1d	1f
2F	1A	1c	0a
2E	.	.	.
2D	0F	1d	.
2C	.	.	.
1BB-	.	1d	1b-
2AA	0c	0e	0cc
2BB-	.	.	.
1C	.	.	.
1GG	1Bn	1g	1dd
0.C	0.c	0.g	0.cc
=	=	=	=
0F	0A	0f	0cc
1BB-	1B-	1f	1dd
0C	0G	0e	0cc
1GG	1G	1d	1b-
1.D	1.A	1.f	1.a
2E	2c	4e	2g
.	.	4d	.
1F	1A	1c	1a
0BB-	0B-	0d	0f
=	=	=	=
1D	1A	1d	1f
0GG	0B-	0d	0g
1C	1c	1e	1g
0F	0c	0f	0a
1C	1c	1e	1g
0D	0A	0d	0f
1G	1B-	1e	1g
0F	0c	0f	0a
=	=	=	=
1C	1e	1g	1cc
0F	0c	0a	0cc
1D	1B-	1f	1dd
0F	0A	0a	0cc
1G	1d	1g	1b-
1.A	1.c#	1.e	1.a
2B-	2d	2d	2g
1A	1c#	1e	1a
0D	0d	0d	0f
=	=	=	=
1D	1A	1d	1f
0GG	0B-	0d	0g
1C	1cn	1e	1g
0F	0c	0f	0a
1C	1c	1e	1g
1.D	0A	0.d	0f
2C	.	.	.
1BB-	1G	.	1g
0.AA	0.c	0.e	0.a
=	=	=	=
0BB-	0F	1r	0d
.	.	1f	.
1BB-	1F	1B-	1d
0GG	0G	0B-	0e
1GG	1G	1B-	1e
1FF	0A	0c	0.f
1F	.	.	.
1D	1F	1d	.
0.C	0.G	0.e	0.cc
=	=	=	=
0F	0A	0c	0a
1F	1c	1f	1a
1C	1c	1e	1g
1D	1A	1d	1f
1C	1c	1e	1g
00FF	00A	00c	00f
==	==	==	==
*-	*-	*-	*-
